X:24
T:Will O' the Wisp
C:Roy Watrous
S:The Watrous Book, 1992
M:6/8
L:1/8
Q:1/8=270
K:D
%%MIDI program 72
%%MIDI transpose 8
%%MIDI ratio 3 1
A|d2f afd|gab B2d|cea ABc|dfe cBA|d2f afd|gab B2d|
ega Afe|d3-d2::A|TF2A dfd|eAe gfe|TD2A cde|dfe d2A|
TF2TA Td2Tf|efg b2b|afd Afe|d3-d2::d|cAd eAf|gAf e2d|
cea ABc|dAF D2d|cAd eAf|gAf e2d|cba gec|d3-d2:|]

